packages/kaspersky-hexa-ui-icons/src/iconsSVGs/24/RemoteDesktop.svg

<svg width="24" height="24" viewBox="0 0 24 24" fill="none" xmlns="http://www.w3.org/2000/svg">
<path d="M8.84338 10.5374L8.84175 10.5399C8.54565 11.0017 7.9319 11.139 7.46691 10.8461C6.99964 10.5516 6.85952 9.93417 7.15394 9.46691L8 10C7.15394 9.46691 7.15368 9.46733 7.15394 9.46691L7.15503 9.46519L7.15623 9.46329L7.15902 9.45892L7.16609 9.44799C7.17147 9.43974 7.17819 9.42958 7.18626 9.41764C7.20239 9.39377 7.22395 9.36272 7.25102 9.32554C7.30509 9.25126 7.38151 9.15197 7.48093 9.03616C7.67914 8.80525 7.97271 8.50404 8.36727 8.20401C9.16196 7.59971 10.3693 7.00002 12 7.00002C13.6307 7.00002 14.838 7.59971 15.6327 8.20401C16.0273 8.50404 16.3209 8.80525 16.5191 9.03616C16.6185 9.15197 16.6949 9.25126 16.749 9.32554C16.776 9.36272 16.7976 9.39377 16.8137 9.41764C16.8218 9.42958 16.8285 9.43974 16.8339 9.44799L16.841 9.45892L16.8438 9.46329L16.845 9.46519L16.8455 9.46607C16.8458 9.46649 16.8461 9.4669 16.0231 9.98542L16.8455 9.46607C17.1399 9.93334 17.0004 10.5516 16.5331 10.8461C16.0681 11.139 15.4543 11.0017 15.1583 10.5399L15.1566 10.5374C15.153 10.532 15.1448 10.5201 15.132 10.5026C15.1065 10.4675 15.063 10.4105 15.0015 10.3389C14.8778 10.1948 14.6851 9.99598 14.4221 9.79601C13.9018 9.40032 13.1091 9.00002 12 9.00002C10.8909 9.00002 10.0982 9.40032 9.57786 9.79601C9.31489 9.99598 9.12218 10.1948 8.99849 10.3389C8.93696 10.4105 8.89353 10.4675 8.86798 10.5026C8.85523 10.5201 8.84705 10.532 8.84338 10.5374Z" fill="black"/>
<path fill-rule="evenodd" clip-rule="evenodd" d="M14.5331 12.8461C14.0707 13.1374 13.4613 13.0033 13.1633 12.5477L13.1618 12.5456C13.1561 12.5378 13.1427 12.5199 13.1214 12.4951C13.0781 12.4448 13.007 12.371 12.9084 12.296C12.7168 12.1503 12.4241 12 12 12C11.5759 12 11.2832 12.1503 11.0916 12.296C10.993 12.371 10.9219 12.4448 10.8786 12.4951C10.8573 12.5199 10.8439 12.5378 10.8382 12.5456L10.8367 12.5477C10.5387 13.0033 9.92926 13.1374 9.46691 12.8461C8.99964 12.5516 8.85952 11.9342 9.15394 11.4669L9.99982 11.9999C9.15394 11.4669 9.15368 11.4673 9.15394 11.4669L9.155 11.4652L9.15612 11.4635L9.15856 11.4596L9.16424 11.4509L9.17885 11.4289C9.19003 11.4123 9.20416 11.392 9.22127 11.3685C9.25544 11.3216 9.3019 11.2613 9.36107 11.1924C9.47881 11.0553 9.65081 10.879 9.88098 10.704C10.3469 10.3497 11.0542 10 12 10C12.9458 10 13.6531 10.3497 14.119 10.704C14.3492 10.879 14.5212 11.0553 14.6389 11.1924C14.6981 11.2613 14.7446 11.3216 14.7787 11.3685C14.7958 11.392 14.81 11.4123 14.8211 11.4289L14.8358 11.4509L14.8414 11.4596L14.8439 11.4635L14.845 11.4652L14.8455 11.4661C14.8458 11.4665 14.8461 11.4669 14.0076 11.9952L14.8455 11.4661C15.14 11.9333 15.0004 12.5516 14.5331 12.8461ZM10.8367 12.5477L10.8389 12.5443L10.836 12.5487L10.8354 12.5496L10.8367 12.5477Z" fill="black"/>
<path fill-rule="evenodd" clip-rule="evenodd" d="M6 3C4.34315 3 3 4.34315 3 6V14C3 15.6569 4.34315 17 6 17H8.99854V18.9901H8C7.44772 18.9901 7 19.4379 7 19.9901C7 20.5424 7.44772 20.9901 8 20.9901H16C16.5523 20.9901 17 20.5424 17 19.9901C17 19.4379 16.5523 18.9901 16 18.9901H15.0015V17H18C19.6569 17 21 15.6569 21 14V6C21 4.34315 19.6569 3 18 3H6ZM18 5H6C5.44772 5 5 5.44772 5 6V14C5 14.5523 5.44772 15 6 15H18C18.5523 15 19 14.5523 19 14V6C19 5.44772 18.5523 5 18 5ZM13.0015 17H10.9985V18.9901H13.0015V17Z" fill="black"/>
</svg>

<svg xmlns="http://www.w3.org/2000/svg" width="24" height="24" fill="none" viewBox="0 0 24 24"><path fill="#000" fill-rule="evenodd" d="M6 3C4.3431 3 3 4.3431 3 6v8c0 1.6569 1.3431 3 3 3h2.9985v1.9901H8c-.5523 0-1 .4478-1 1s.4477 1 1 1h8c.5523 0 1-.4477 1-1s-.4477-1-1-1h-.9985V17H18c1.6569 0 3-1.3431 3-3V6c0-1.6569-1.3431-3-3-3zm12 2H6c-.5523 0-1 .4477-1 1v8c0 .5523.4477 1 1 1h12c.5523 0 1-.4477 1-1V6c0-.5523-.4477-1-1-1m-9.1566 5.5374-.0016.0025c-.2961.4618-.9099.5991-1.3749.3062-.4673-.2945-.6074-.912-.313-1.3792l.0011-.0017.0012-.002.0028-.0043.0071-.011.0202-.0303a3 3 0 0 1 .0647-.092 4.6 4.6 0 0 1 .23-.2894 5.8 5.8 0 0 1 .8863-.8322C9.162 7.5997 10.3693 7 12 7s2.838.5997 3.6327 1.204c.3946.3.6882.6013.8864.8322a4.7 4.7 0 0 1 .2299.2893 3 3 0 0 1 .0849.1225l.0071.011.0028.0043.0012.0019.0005.0009c.2944.4672.1549 1.0855-.3124 1.38-.465.2929-1.0787.1556-1.3748-.3062l-.0017-.0025a1 1 0 0 0-.0246-.0348 2.6 2.6 0 0 0-.1305-.1637 3.8 3.8 0 0 0-.5794-.5429C13.9018 9.4003 13.1091 9 12 9s-1.9018.4003-2.4221.796c-.263.2-.4557.3988-.5794.5429a2.6 2.6 0 0 0-.1305.1637 1 1 0 0 0-.0246.0348m4.3199 2.0103c.298.4556.9074.5897 1.3698.2984.4673-.2945.6069-.9127.3124-1.38l-.0005-.0009-.0011-.0017-.0025-.0039-.0056-.0087-.0147-.022a2 2 0 0 0-.0424-.0604 2.8 2.8 0 0 0-.1398-.1761 3.4 3.4 0 0 0-.5199-.4884C13.6531 10.3497 12.9458 10 12 10s-1.6531.3497-2.119.704a3.4 3.4 0 0 0-.52.4884 2.8 2.8 0 0 0-.1397.1761 2 2 0 0 0-.0424.0604l-.0147.022-.0056.0087-.0025.0039-.0011.0017-.001.0017c-.2945.4673-.1544 1.0847.3129 1.3792.4624.2913 1.0718.1572 1.3698-.2984l.0015-.0021a.8.8 0 0 1 .0404-.0505 1.4 1.4 0 0 1 .213-.1991c.1916-.1457.4843-.296.9084-.296s.7168.1503.9084.296c.0986.075.1697.1488.213.1991a.8.8 0 0 1 .0404.0505zm-2.3266 0-.0013.0019.0006-.0009.0029-.0044zm4.0088-1.0816-.8379.5291c.8373-.5276.8382-.5287.8379-.5291m-1.844 7.524V17h-2.003v1.9901z"/></svg>
